svg/office_building_cog_outline.svg

<svg xmlns="http://www.w3.org/2000/svg" viewBox="0 0 24 24"><path d="M17 13a.26.26 0 0 0-.26.21l-.19 1.32c-.3.13-.59.29-.85.47l-1.24-.5c-.11 0-.24 0-.31.13l-1 1.73c-.06.11-.04.24.06.32l1.06.82a4.2 4.2 0 0 0 0 1l-1.06.82a.26.26 0 0 0-.06.32l1 1.73c.06.13.19.13.31.13l1.24-.5c.26.18.54.35.85.47l.19 1.32c.02.12.12.21.26.21h2c.11 0 .22-.09.24-.21l.19-1.32c.3-.13.57-.29.84-.47l1.23.5c.13 0 .26 0 .33-.13l1-1.73a.26.26 0 0 0-.06-.32l-1.07-.82c.02-.17.04-.33.04-.5s-.01-.33-.04-.5l1.06-.82a.26.26 0 0 0 .06-.32l-1-1.73c-.06-.13-.19-.13-.32-.13l-1.23.5c-.27-.18-.54-.35-.85-.47l-.19-1.32A.236.236 0 0 0 19 13zm1 3.5c.83 0 1.5.67 1.5 1.5s-.67 1.5-1.5 1.5c-.84 0-1.5-.67-1.5-1.5s.67-1.5 1.5-1.5M10 5h2v2h-2zm6 2h-2V5h2zm-2 2h2v2h-2zm-4 0h2v2h-2zm3.11 14H2V1h18v10.29c-.63-.18-1.3-.29-2-.29V3H4v18h6v-3.5h1.03c-.03.17-.03.33-.03.5 0 1.96.81 3.73 2.11 5M8 15H6v-2h2zm0-4H6V9h2zm0-4H6V5h2zM6 17h2v2H6zm4-4h2v1.41c-.11.19-.22.39-.32.59H10z"/></svg>

<svg xmlns="http://www.w3.org/2000/svg" id="mdi-office-building-cog-outline" viewBox="0 0 24 24"><path d="M17 13C16.87 13 16.76 13.09 16.74 13.21L16.55 14.53C16.25 14.66 15.96 14.82 15.7 15L14.46 14.5C14.35 14.5 14.22 14.5 14.15 14.63L13.15 16.36C13.09 16.47 13.11 16.6 13.21 16.68L14.27 17.5C14.25 17.67 14.24 17.83 14.24 18S14.25 18.33 14.27 18.5L13.21 19.32C13.12 19.4 13.09 19.53 13.15 19.64L14.15 21.37C14.21 21.5 14.34 21.5 14.46 21.5L15.7 21C15.96 21.18 16.24 21.35 16.55 21.47L16.74 22.79C16.76 22.91 16.86 23 17 23H19C19.11 23 19.22 22.91 19.24 22.79L19.43 21.47C19.73 21.34 20 21.18 20.27 21L21.5 21.5C21.63 21.5 21.76 21.5 21.83 21.37L22.83 19.64C22.89 19.53 22.86 19.4 22.77 19.32L21.7 18.5C21.72 18.33 21.74 18.17 21.74 18S21.73 17.67 21.7 17.5L22.76 16.68C22.85 16.6 22.88 16.47 22.82 16.36L21.82 14.63C21.76 14.5 21.63 14.5 21.5 14.5L20.27 15C20 14.82 19.73 14.65 19.42 14.53L19.23 13.21C19.22 13.09 19.11 13 19 13H17M18 16.5C18.83 16.5 19.5 17.17 19.5 18S18.83 19.5 18 19.5C17.16 19.5 16.5 18.83 16.5 18S17.17 16.5 18 16.5M10 5H12V7H10V5M16 7H14V5H16V7M14 9H16V11H14V9M10 9H12V11H10V9M13.11 23H2V1H20V11.29C19.37 11.11 18.7 11 18 11V3H4V21H10V17.5H11.03C11 17.67 11 17.83 11 18C11 19.96 11.81 21.73 13.11 23M8 15H6V13H8V15M8 11H6V9H8V11M8 7H6V5H8V7M6 17H8V19H6V17M10 13H12V14.41C11.89 14.6 11.78 14.8 11.68 15H10V13Z" /></svg>
